resources/svg/solid/microchip.svg

<svg xmlns="http://www.w3.org/2000/svg" fill="currentColor" stroke="none" viewBox="0 0 24 24"><path d="M7.999 22h8c1.103 0 2-.897 2-2V4c0-1.103-.897-2-2-2h-8c-1.103 0-2 .897-2 2v16C5.999 21.103 6.896 22 7.999 22zM2.999 7L4.999 7 4.999 5 2.999 5 2.999 5.5 1.999 5.5 1.999 6.5 2.999 6.5zM20.999 5L18.999 5 18.999 7 20.999 7 20.999 6.5 21.999 6.5 21.999 5.5 20.999 5.5zM2.999 11L4.999 11 4.999 9 2.999 9 2.999 9.5 1.999 9.5 1.999 10.5 2.999 10.5zM20.999 9L18.999 9 18.999 11 20.999 11 20.999 10.5 21.999 10.5 21.999 9.5 20.999 9.5zM2.999 15L4.999 15 4.999 13 2.999 13 2.999 13.5 1.999 13.5 1.999 14.5 2.999 14.5zM20.999 13L18.999 13 18.999 15 20.999 15 20.999 14.5 21.999 14.5 21.999 13.5 20.999 13.5zM2.999 19L4.999 19 4.999 17 2.999 17 2.999 17.5 1.999 17.5 1.999 18.5 2.999 18.5zM20.999 17L18.999 17 18.999 19 20.999 19 20.999 18.5 21.999 18.5 21.999 17.5 20.999 17.5z"/></svg>

<svg xmlns="http://www.w3.org/2000/svg" fill="currentColor" stroke="none" viewBox="0 0 24 24"><path d="M7.999 22h8c1.103 0 2-.897 2-2V4c0-1.103-.897-2-2-2h-8c-1.103 0-2 .897-2 2v16c0 1.103.897 2 2 2zm-5-15h2V5h-2v.5h-1v1h1zm18-2h-2v2h2v-.5h1v-1h-1zm-18 6h2V9h-2v.5h-1v1h1zm18-2h-2v2h2v-.5h1v-1h-1zm-18 6h2v-2h-2v.5h-1v1h1zm18-2h-2v2h2v-.5h1v-1h-1zm-18 6h2v-2h-2v.5h-1v1h1zm18-2h-2v2h2v-.5h1v-1h-1z"/></svg>
